X: 126
T:Muiñeira do Rego
M:6/8
L:1/8
Q:200
C:Trad.
S:Rep. Xusto do Rego
R:Muiñeira
K:C
EDC | EDC EDC | G4 AG |{A}GDE FGF |E2C EDC| EDC EDC |G4 AG |
{A}GDE FED |C3 :| |: cdc | B2G ABA |G2E GAG/"F."c/ | GDE FGA/"F."c/ | A2
G cdc|
B2G ABA | G2 EGAG/"F."c/ | GDE FED |C3- :| |: CE{C}E/"F."c/ | EDE FEF |
G3 EDE |
F3 DCD | EDC- CE{C}E/"F."c/ | EDE FEF | GAB  cBA |BAG FED |C3 :||

